X: 31587
T: Palmer's Gate
R: reel
M: 4/4
K: Eminor
|:GA|BE (3EEE Gz BG|AcBA GEDE|~G3A BAGA|BedB A2 GA|
BE (3EEE Gz BG|AcBA GEDE|G2 (3Bcd edBA|GEFD E2:|
|:GA|Beed ~e3f|g2fg edBA|G2BG dGBA|GABe dBA2|
Beed ~e3f|g2fg edBA|G2 (3Bcd edBA|GEFD E2:|

